X: 1170
T: Morrisons jig
B: ralph
B: nick
B: steve tunes
M:6/8
R: jig
Q: 3/8=100
K:EDor
V:1 
"Em"E2E BAB | "Em"E2B "D"AFD | "Em"EDE BAB | "D"dcB AFD |
"Em"E2E BAB | "Em"EBE "D"AFD | "G"G3 "D"FGA |  "G"dAG "D"FED  :|
"Em"B2e fee | "Em"aee fed | "Em"Bee fee |"D"fag fed |
"Em"Bee fee | "Em"aee fee | "C"gfe d2A | "D"BAG FED |
"Em"Bee fee | "Em"aee fed | "Em"Bee fee | "D"faf def |
"C"g2f g2e | "C"def g2d | "C"edc d2A | "D"BAG FED ||
% abcbook-tune_id 63443e6b1331ccc2097f6e3f


% abcbook-boost 0
% abcbook-tablature 
% abcbook-transpose 
% abcbook-lastupdated 1665976753946
% abcbook-soundfonts 
% abcbook-repeats 3
% Rhythm Jig
% Titles One title
% Transcriptions Only 1 transcription
% Movement Has some stepwise movement
% Mode major
% Key D
% Time_signature 6/8
% Has_accompaniment_chords No chords

